packages/icons/src/moon.svg

<svg width="24" height="24" viewBox="0 0 24 24" fill="none" xmlns="http://www.w3.org/2000/svg">
<path d="M12 20.9999C9.48333 20.9999 7.35417 20.1291 5.6125 18.3874C3.87083 16.6457 3 14.5166 3 11.9999C3 9.6999 3.75 7.70407 5.25 6.0124C6.75 4.32074 8.66667 3.33324 11 3.0499C11.4167 2.9999 11.7417 3.1499 11.975 3.4999C12.2083 3.8499 12.2 4.21657 11.95 4.5999C11.6667 5.03324 11.4542 5.49157 11.3125 5.9749C11.1708 6.45824 11.1 6.96657 11.1 7.4999C11.1 8.9999 11.625 10.2749 12.675 11.3249C13.725 12.3749 15 12.8999 16.5 12.8999C17.0167 12.8999 17.5292 12.8249 18.0375 12.6749C18.5458 12.5249 19 12.3166 19.4 12.0499C19.75 11.8166 20.1083 11.8041 20.475 12.0124C20.8417 12.2207 21 12.5499 20.95 12.9999C20.7167 15.2999 19.7375 17.2082 18.0125 18.7249C16.2875 20.2416 14.2833 20.9999 12 20.9999ZM12 18.9999C13.4667 18.9999 14.7833 18.5957 15.95 17.7874C17.1167 16.9791 17.9667 15.9249 18.5 14.6249C18.1667 14.7082 17.8333 14.7749 17.5 14.8249C17.1667 14.8749 16.8333 14.8999 16.5 14.8999C14.45 14.8999 12.7042 14.1791 11.2625 12.7374C9.82083 11.2957 9.1 9.5499 9.1 7.4999C9.1 7.16657 9.125 6.83324 9.175 6.4999C9.225 6.16657 9.29167 5.83324 9.375 5.4999C8.075 6.03324 7.02083 6.88324 6.2125 8.0499C5.40417 9.21657 5 10.5332 5 11.9999C5 13.9332 5.68333 15.5832 7.05 16.9499C8.41667 18.3166 10.0667 18.9999 12 18.9999Z" fill="black"/>
</svg>

<svg xmlns="http://www.w3.org/2000/svg" width="24" height="24" fill="none" viewBox="0 0 24 24">
  <path fill="#000" d="M12 21c-2.517 0-4.646-.87-6.388-2.613C3.871 16.646 3 14.517 3 12c0-2.3.75-4.296 2.25-5.987C6.75 4.32 8.667 3.333 11 3.05c.417-.05.742.1.975.45.233.35.225.717-.025 1.1a5.15 5.15 0 0 0-.637 1.375A5.394 5.394 0 0 0 11.1 7.5c0 1.5.525 2.775 1.575 3.825C13.725 12.375 15 12.9 16.5 12.9c.517 0 1.03-.075 1.538-.225a4.97 4.97 0 0 0 1.362-.625c.35-.233.708-.246 1.075-.038.367.209.525.538.475.988-.233 2.3-1.212 4.208-2.938 5.725C16.288 20.242 14.284 21 12 21Zm0-2c1.467 0 2.783-.404 3.95-1.212a7.012 7.012 0 0 0 2.55-3.163c-.333.083-.667.15-1 .2-.333.05-.667.075-1 .075-2.05 0-3.796-.72-5.238-2.162C9.821 11.296 9.1 9.55 9.1 7.5c0-.333.025-.667.075-1 .05-.333.117-.667.2-1a7.013 7.013 0 0 0-3.162 2.55C5.404 9.217 5 10.533 5 12c0 1.933.683 3.583 2.05 4.95C8.417 18.317 10.067 19 12 19Z"/>
</svg>
